svg/color/sui.svg

<svg width="64" height="65" viewBox="0 0 64 65" fill="none" xmlns="http://www.w3.org/2000/svg">
<rect y="0.303711" width="64" height="64" rx="32" fill="#6FBCF0"/>
<rect x="0.5" y="0.803711" width="63" height="63" rx="31.5" stroke="#070B14" stroke-opacity="0.15"/>
<path fill-rule="evenodd" clip-rule="evenodd" d="M16.6398 48.9596C19.8457 54.513 25.5881 57.828 31.9999 57.828C38.4118 57.828 44.153 54.513 47.3601 48.9596C50.5661 43.4072 50.5661 36.7773 47.3601 31.2239L33.8505 7.82501C33.028 6.40045 30.9718 6.40045 30.1494 7.82502L16.6398 31.2239C13.4339 36.7762 13.4339 43.4062 16.6398 48.9596ZM28.1943 18.9569L31.0746 13.9679C31.4859 13.2556 32.514 13.2556 32.9253 13.9679L44.0062 33.161C46.0421 36.687 46.4242 40.768 45.1526 44.5023C45.0202 43.8931 44.8352 43.2697 44.5857 42.64C43.0551 38.7774 39.5942 35.7967 34.2974 33.7801C30.6556 32.3987 28.3311 30.367 27.3865 27.7412C26.1699 24.3567 27.4406 20.6661 28.1943 18.9569ZM23.2828 27.464L19.9936 33.161C17.4874 37.5018 17.4874 42.6837 19.9936 47.0246C22.4999 51.3654 26.9875 53.9559 31.9999 53.9559C35.3291 53.9559 38.4276 52.8121 40.8674 50.772C41.1857 49.9709 42.171 47.0385 40.9536 44.0162C39.8293 41.2253 37.1235 38.9974 32.9109 37.3927C28.1491 35.5864 25.0554 32.7665 23.7177 29.0137C23.5334 28.497 23.3903 27.9792 23.2828 27.464Z" fill="white"/>
</svg>

<svg xmlns="http://www.w3.org/2000/svg" width="64" height="65" fill="none" viewBox="0 0 64 65"><rect width="64" height="64" y=".304" fill="#6FBCF0" rx="32"/><rect width="63" height="63" x=".5" y=".804" stroke="#070B14" stroke-opacity=".15" rx="31.5"/><path fill="#fff" fill-rule="evenodd" d="M16.64 48.96c3.206 5.553 8.948 8.868 15.36 8.868s12.153-3.315 15.36-8.868 3.206-12.183 0-17.736L33.85 7.825c-.822-1.425-2.878-1.425-3.7 0L16.64 31.224c-3.206 5.552-3.206 12.182 0 17.736m11.554-30.003 2.88-4.99a1.07 1.07 0 0 1 1.851 0l11.081 19.194c2.036 3.526 2.418 7.607 1.147 11.341a12 12 0 0 0-.567-1.862c-1.53-3.863-4.992-6.843-10.289-8.86-3.641-1.381-5.966-3.413-6.91-6.039-1.217-3.384.054-7.075.807-8.784m-4.911 8.507-3.29 5.697c-2.506 4.34-2.506 9.523 0 13.864 2.507 4.34 6.995 6.93 12.007 6.93 3.33 0 6.428-1.143 8.867-3.183.319-.801 1.304-3.733.087-6.756-1.125-2.79-3.83-5.019-8.043-6.623-4.762-1.807-7.856-4.626-9.193-8.38a12 12 0 0 1-.435-1.549" clip-rule="evenodd"/></svg>
